X:1
T:The Storm-Loving Laſsie
M:C|
L: 1/8
R:reel
C:T. S. Macdonald
K:Amin
CB, | A,2 A,C DCA,C | cAGE D2 CB, | A,2 A,C DCDF | DCB,G, A,2 CB, |
      A,2 A,C DCA,C | cAGE D2 CB, | A,2 A,C DCDF | DCB,G, A,2 ||
AB  | cdeA fAdA | ecBA G2 AB | cdeA fAdA | fad'^c' d'2 AB |
      cdeA fAdA | ecBA G2 AB | cdeA fAdA | DB,A,G, A,2|]

